X:1
T:[ID 2-112]
T:[ID 2-112]
T:Bezeichnung standardisiert: Menuet [mit Trio] Men\"uet Con Trio
T:Urheber unbekannt Datum in der hier transkribierten schriftlichen Quelle: 1767
C:Urheber unbekannt
C:Datum in der hier transkribierten schriftlichen Quelle: 1767
L:1/8
M:3/4
K:Bb
V:1 treble 
V:1
 f2 f2 f2 | (3bag f4 | egceAc |{B} A4 B2 | (D2 E2) .D2 | (G2 G2) .F2 | F2 E2 (3DEF | E2 D2 C6 :: %8
 Ac BAGF | c2 E4 | DfedcB | f2 _A4 | G2 =A2 BF | E4 D2 | (3GFE D2 C2 | B,6 :| %16
[M:3/4]"^Trio" !fermata!B2 b2 a2 | g2 f2 e2 | d2 cBAc | B4 c(B/c/) | d2 FBdB |{c} B4 A2 | %22
 G2 F2 =E2 | F6 :: F2 f4 | (fd)(ce) d2 | F2 d4 | (dB)(cB) B2 | E2 g2 f2 | D2 f2 e2 | Ce d2 c2 | %31
 B6 :| %32

